src/components/widgets/omg-address-input/assets/scan-qr-icon.svg

<?xml version="1.0" encoding="UTF-8"?>
<svg width="24px" height="24px" viewBox="0 0 24 24" version="1.1" xmlns="http://www.w3.org/2000/svg" xmlns:xlink="http://www.w3.org/1999/xlink">
    <!-- Generator: Sketch 60.1 (88133) - https://sketch.com -->
    <title>Group 3</title>
    <desc>Created with Sketch.</desc>
    <defs>
        <path d="M8.16666667,11.4333333 C8.44094782,11.4333333 8.66785745,11.6361549 8.70559753,11.9 L10.8888889,11.9 C11.1895773,11.9 11.4333333,12.1437561 11.4333333,12.4444444 C11.4333333,12.7451328 11.1895773,12.9888889 10.8888889,12.9888889 L8.63333333,12.9888889 C8.07491209,12.9888889 7.62222222,12.536199 7.62222222,11.9777778 C7.62222222,11.6770894 7.8659783,11.4333333 8.16666667,11.4333333 Z M5.36666667,7.62222222 C5.92508791,7.62222222 6.37777778,8.07491209 6.37777778,8.63333333 L6.37777778,11.9777778 C6.37777778,12.536199 5.92508791,12.9888889 5.36666667,12.9888889 L2.02222222,12.9888889 C1.46380098,12.9888889 1.01111111,12.536199 1.01111111,11.9777778 L1.01111111,8.63333333 C1.01111111,8.07491209 1.46380098,7.62222222 2.02222222,7.62222222 L5.36666667,7.62222222 Z M12.4444444,11.1222222 C12.7451328,11.1222222 12.9888889,11.3659783 12.9888889,11.6666667 L12.9888889,12.2111111 C12.9888889,12.5117995 12.7451328,12.7555556 12.4444444,12.7555556 C12.1437561,12.7555556 11.9,12.5117995 11.9,12.2111111 L11.9,11.6666667 C11.9,11.3659783 12.1437561,11.1222222 12.4444444,11.1222222 Z M5.28888889,8.71111111 L2.1,8.71111111 L2.1,11.9 L5.28888889,11.9 L5.28888889,8.71111111 Z M9.38514868,7.62222222 C9.68583705,7.62222222 9.92959313,7.8659783 9.92959313,8.16666667 C9.92959313,8.46735503 9.68583705,8.71111111 9.38514868,8.71111111 L8.71111111,8.71111111 L8.71111111,10.348221 C8.71111111,10.6489093 8.46735503,10.8926654 8.16666667,10.8926654 C7.8659783,10.8926654 7.62222222,10.6489093 7.62222222,10.348221 L7.62222222,8.63333333 C7.62222222,8.07491209 8.07491209,7.62222222 8.63333333,7.62222222 L9.38514868,7.62222222 Z M10.5,9.72222222 C10.8006884,9.72222222 11.0444444,9.9659783 11.0444444,10.2666667 C11.0444444,10.5372862 10.847002,10.7617906 10.5883117,10.8039853 L10.5,10.8111111 L10.1111111,10.8111111 C9.81042275,10.8111111 9.56666667,10.567355 9.56666667,10.2666667 C9.56666667,9.99604714 9.76410909,9.77154276 10.0227994,9.72934808 L10.1111111,9.72222222 L10.5,9.72222222 Z M3.88888889,9.72222222 C4.18957725,9.72222222 4.43333333,9.9659783 4.43333333,10.2666667 C4.43333333,10.5372862 4.23589091,10.7617906 3.97720061,10.8039853 L3.88888889,10.8111111 L3.5,10.8111111 C3.19931164,10.8111111 2.95555556,10.567355 2.95555556,10.2666667 C2.95555556,9.99604714 3.15299798,9.77154276 3.41168828,9.72934808 L3.5,9.72222222 L3.88888889,9.72222222 Z M11.9777778,7.62222222 C12.536199,7.62222222 12.9888889,8.07491209 12.9888889,8.63333333 L12.9888889,10.1111111 C12.9888889,10.4117995 12.7451328,10.6555556 12.4444444,10.6555556 C12.1437561,10.6555556 11.9,10.4117995 11.9,10.1111111 L11.9,8.71111111 L11.1814656,8.71111111 C10.8807772,8.71111111 10.6370211,8.46735503 10.6370211,8.16666667 C10.6370211,7.8659783 10.8807772,7.62222222 11.1814656,7.62222222 L11.9777778,7.62222222 Z M11.9777778,1.01111111 C12.536199,1.01111111 12.9888889,1.46380098 12.9888889,2.02222222 L12.9888889,5.36666667 C12.9888889,5.92508791 12.536199,6.37777778 11.9777778,6.37777778 L8.63333333,6.37777778 C8.07491209,6.37777778 7.62222222,5.92508791 7.62222222,5.36666667 L7.62222222,2.02222222 C7.62222222,1.46380098 8.07491209,1.01111111 8.63333333,1.01111111 L11.9777778,1.01111111 Z M5.36666667,1.01111111 C5.92508791,1.01111111 6.37777778,1.46380098 6.37777778,2.02222222 L6.37777778,5.36666667 C6.37777778,5.92508791 5.92508791,6.37777778 5.36666667,6.37777778 L2.02222222,6.37777778 C1.46380098,6.37777778 1.01111111,5.92508791 1.01111111,5.36666667 L1.01111111,2.02222222 C1.01111111,1.46380098 1.46380098,1.01111111 2.02222222,1.01111111 L5.36666667,1.01111111 Z M11.9,2.1 L8.71111111,2.1 L8.71111111,5.28888889 L11.9,5.28888889 L11.9,2.1 Z M5.28888889,2.1 L2.1,2.1 L2.1,5.28888889 L5.28888889,5.28888889 L5.28888889,2.1 Z M10.5,3.18888889 C10.8006884,3.18888889 11.0444444,3.43264497 11.0444444,3.73333333 C11.0444444,4.00395286 10.847002,4.22845724 10.5883117,4.27065192 L10.5,4.27777778 L10.1111111,4.27777778 C9.81042275,4.27777778 9.56666667,4.0340217 9.56666667,3.73333333 C9.56666667,3.46271381 9.76410909,3.23820943 10.0227994,3.19601475 L10.1111111,3.18888889 L10.5,3.18888889 Z M3.88888889,3.18888889 C4.18957725,3.18888889 4.43333333,3.43264497 4.43333333,3.73333333 C4.43333333,4.0340217 4.18957725,4.27777778 3.88888889,4.27777778 L3.88888889,4.27777778 L3.5,4.27777778 C3.19931164,4.27777778 2.95555556,4.0340217 2.95555556,3.73333333 C2.95555556,3.43264497 3.19931164,3.18888889 3.5,3.18888889 L3.5,3.18888889 Z" id="path-1"></path>
    </defs>
    <g id="Hi-Res-_Change-color" stroke="none" stroke-width="1" fill="none" fill-rule="evenodd">
        <g id="Transfer_Send_Scan_Rootchain" transform="translate(-322.000000, -428.000000)">
            <g id="Keyboad-active" transform="translate(0.000000, 201.000000)">
                <g id="Form">
                    <g id="To" transform="translate(16.000000, 180.000000)">
                        <g id="To-Input_2" transform="translate(0.000000, 34.000000)">
                            <g id="QR" transform="translate(293.000000, 0.000000)">
                                <g id="Group-3" transform="translate(14.000000, 14.000000)">
                                    <path d="M22,16.5340705 L22,20 C22,21.1045695 21.1045695,22 20,22 L17.0993437,22 L17.0993437,22 M4.66314497,22 L2,22 C0.8954305,22 5.7935996e-16,21.1045695 0,20 L0,16.5340705 L0,16.5340705 M0,5.66849646 L0,2 C-1.3527075e-16,0.8954305 0.8954305,2.02906125e-16 2,0 L4.66314497,0 L4.66314497,0 M17.0993437,0 L20,0 C21.1045695,-4.2495073e-16 22,0.8954305 22,2 L22,5.66849646 L22,5.66849646" id="Shape" stroke="#858B9A" stroke-width="2" stroke-linecap="round"></path>
                                    <g id="icon18/037-QR" transform="translate(4.000000, 4.000000)">
                                        <rect id="Rectangle" fill-opacity="0" fill="#FFFFFF" x="0" y="0" width="14" height="14"></rect>
                                        <mask id="mask-2" fill="white">
                                            <use xlink:href="#path-1"></use>
                                        </mask>
                                        <use id="Mask" fill="#04070D" fill-rule="nonzero" xlink:href="#path-1"></use>
                                        <rect id="Color" fill="#858B9A" mask="url(#mask-2)" x="0" y="0" width="14" height="14"></rect>
                                    </g>
                                </g>
                            </g>
                        </g>
                    </g>
                </g>
            </g>
        </g>
    </g>
</svg>

<svg xmlns="http://www.w3.org/2000/svg" width="23" height="23" viewBox="0 0 23 23"><defs><style>.a{fill:none;stroke:#778dfc;stroke-linecap:round;fill-rule:evenodd;}.b{fill:#778dfc;}</style></defs><g transform="translate(-303.5 -40.5)"><path class="a" d="M22,16.534V20a2,2,0,0,1-2,2H17.1M4.663,22H2a2,2,0,0,1-2-2V16.534H0M0,5.668V2A2,2,0,0,1,2,0H4.663M17.1,0H20a2,2,0,0,1,2,2V5.668h0" transform="translate(304 41)"/><g transform="translate(308 45)"><path class="b" d="M8.167,11.433a.545.545,0,0,1,.539.467h2.183a.544.544,0,0,1,0,1.089H8.633a1.011,1.011,0,0,1-1.011-1.011A.544.544,0,0,1,8.167,11.433Zm-2.8-3.811A1.011,1.011,0,0,1,6.378,8.633v3.344a1.011,1.011,0,0,1-1.011,1.011H2.022a1.011,1.011,0,0,1-1.011-1.011V8.633A1.011,1.011,0,0,1,2.022,7.622Zm7.078,3.5a.544.544,0,0,1,.544.544v.544a.544.544,0,0,1-1.089,0v-.544A.544.544,0,0,1,12.444,11.122ZM5.289,8.711H2.1V11.9H5.289Zm4.1-1.089a.544.544,0,0,1,0,1.089H8.711v1.637a.544.544,0,1,1-1.089,0V8.633A1.011,1.011,0,0,1,8.633,7.622Zm1.115,2.1a.544.544,0,0,1,.088,1.082l-.088.007h-.389a.544.544,0,0,1-.088-1.082l.088-.007Zm-6.611,0A.544.544,0,0,1,3.977,10.8l-.088.007H3.5a.544.544,0,0,1-.088-1.082L3.5,9.722Zm8.089-2.1a1.011,1.011,0,0,1,1.011,1.011v1.478a.544.544,0,1,1-1.089,0v-1.4h-.719a.544.544,0,0,1,0-1.089Zm0-6.611a1.011,1.011,0,0,1,1.011,1.011V5.367a1.011,1.011,0,0,1-1.011,1.011H8.633A1.011,1.011,0,0,1,7.622,5.367V2.022A1.011,1.011,0,0,1,8.633,1.011Zm-6.611,0A1.011,1.011,0,0,1,6.378,2.022V5.367A1.011,1.011,0,0,1,5.367,6.378H2.022A1.011,1.011,0,0,1,1.011,5.367V2.022A1.011,1.011,0,0,1,2.022,1.011ZM11.9,2.1H8.711V5.289H11.9Zm-6.611,0H2.1V5.289H5.289ZM10.5,3.189a.544.544,0,0,1,.088,1.082l-.088.007h-.389A.544.544,0,0,1,10.023,3.2l.088-.007Zm-6.611,0a.544.544,0,1,1,0,1.089H3.5a.544.544,0,0,1,0-1.089h.389Z"/></g></g></svg>
